icons/modern/keycap-4.svg

<svg width="32" height="32" viewBox="0 0 32 32" fill="none" xmlns="http://www.w3.org/2000/svg">
<g filter="url(#filter0_ii_18590_3314)">
<rect x="2.28931" y="2.4375" width="27.875" height="27.875" rx="3.6" fill="url(#paint0_linear_18590_3314)"/>
<rect x="2.28931" y="2.4375" width="27.875" height="27.875" rx="3.6" fill="url(#paint1_radial_18590_3314)"/>
</g>
<g filter="url(#filter1_f_18590_3314)">
<path d="M28.4768 4.9375V27.8125" stroke="url(#paint2_linear_18590_3314)" stroke-width="1.5" stroke-linecap="round"/>
</g>
<g filter="url(#filter2_f_18590_3314)">
<path d="M5.75317 4.25H27.5344" stroke="url(#paint3_linear_18590_3314)" stroke-width="1.5" stroke-linecap="round"/>
</g>
<g filter="url(#filter3_f_18590_3314)">
<path d="M14.84 8.23745C15.7778 8.47126 16.3485 9.42103 16.1147 10.3588L14.8537 15.4163C14.838 15.4794 14.8857 15.5405 14.9508 15.5405H16.622C16.6773 15.5405 16.722 15.4957 16.722 15.4405V14.4354C16.722 13.4689 17.5055 12.6854 18.472 12.6854C19.4385 12.6854 20.222 13.4689 20.222 14.4354V15.4941C20.222 15.5416 20.2556 15.5823 20.3017 15.5939C21.0599 15.7859 21.6209 16.4727 21.6209 17.2905C21.6209 18.1083 21.0599 18.7951 20.3017 18.9871C20.2556 18.9987 20.222 19.0394 20.222 19.0869V22.8149C20.222 23.7814 19.4385 24.5649 18.472 24.5649C17.5055 24.5649 16.722 23.7814 16.722 22.8149V19.1405C16.722 19.0853 16.6773 19.0405 16.622 19.0405H12.5829C12.0442 19.0405 11.5355 18.7924 11.2039 18.3679C10.8722 17.9434 10.7546 17.3898 10.8849 16.8671L12.7186 9.51212C12.9524 8.57433 13.9022 8.00364 14.84 8.23745Z" fill="#579FFF"/>
</g>
<g filter="url(#filter4_ii_18590_3314)">
<path d="M14.84 8.23745C15.7778 8.47126 16.3485 9.42103 16.1147 10.3588L14.8537 15.4163C14.838 15.4794 14.8857 15.5405 14.9508 15.5405H16.622C16.6773 15.5405 16.722 15.4957 16.722 15.4405V14.4354C16.722 13.4689 17.5055 12.6854 18.472 12.6854C19.4385 12.6854 20.222 13.4689 20.222 14.4354V15.4941C20.222 15.5416 20.2556 15.5823 20.3017 15.5939C21.0599 15.7859 21.6209 16.4727 21.6209 17.2905C21.6209 18.1083 21.0599 18.7951 20.3017 18.9871C20.2556 18.9987 20.222 19.0394 20.222 19.0869V22.8149C20.222 23.7814 19.4385 24.5649 18.472 24.5649C17.5055 24.5649 16.722 23.7814 16.722 22.8149V19.1405C16.722 19.0853 16.6773 19.0405 16.622 19.0405H12.5829C12.0442 19.0405 11.5355 18.7924 11.2039 18.3679C10.8722 17.9434 10.7546 17.3898 10.8849 16.8671L12.7186 9.51212C12.9524 8.57433 13.9022 8.00364 14.84 8.23745Z" fill="#FCF2FF"/>
</g>
<defs>
<filter id="filter0_ii_18590_3314" x="2.28931" y="1.4375" width="28.875" height="28.875" filterUnits="userSpaceOnUse" color-interpolation-filters="sRGB">
<feFlood flood-opacity="0" result="BackgroundImageFix"/>
<feBlend mode="normal" in="SourceGraphic" in2="BackgroundImageFix" result="shape"/>
<feColorMatrix in="SourceAlpha" type="matrix" values="0 0 0 0 0 0 0 0 0 0 0 0 0 0 0 0 0 0 127 0" result="hardAlpha"/>
<feOffset dx="1" dy="-1"/>
<feGaussianBlur stdDeviation="1.5"/>
<feComposite in2="hardAlpha" operator="arithmetic" k2="-1" k3="1"/>
<feColorMatrix type="matrix" values="0 0 0 0 0.188235 0 0 0 0 0.470588 0 0 0 0 0.843137 0 0 0 1 0"/>
<feBlend mode="normal" in2="shape" result="effect1_innerShadow_18590_3314"/>
<feColorMatrix in="SourceAlpha" type="matrix" values="0 0 0 0 0 0 0 0 0 0 0 0 0 0 0 0 0 0 127 0" result="hardAlpha"/>
<feOffset dy="-1"/>
<feGaussianBlur stdDeviation="1.5"/>
<feComposite in2="hardAlpha" operator="arithmetic" k2="-1" k3="1"/>
<feColorMatrix type="matrix" values="0 0 0 0 0.27451 0 0 0 0 0.34902 0 0 0 0 0.8 0 0 0 1 0"/>
<feBlend mode="normal" in2="effect1_innerShadow_18590_3314" result="effect2_innerShadow_18590_3314"/>
</filter>
<filter id="filter1_f_18590_3314" x="25.7268" y="2.1875" width="5.5" height="28.375" filterUnits="userSpaceOnUse" color-interpolation-filters="sRGB">
<feFlood flood-opacity="0" result="BackgroundImageFix"/>
<feBlend mode="normal" in="SourceGraphic" in2="BackgroundImageFix" result="shape"/>
<feGaussianBlur stdDeviation="1" result="effect1_foregroundBlur_18590_3314"/>
</filter>
<filter id="filter2_f_18590_3314" x="3.00317" y="1.5" width="27.2812" height="5.5" filterUnits="userSpaceOnUse" color-interpolation-filters="sRGB">
<feFlood flood-opacity="0" result="BackgroundImageFix"/>
<feBlend mode="normal" in="SourceGraphic" in2="BackgroundImageFix" result="shape"/>
<feGaussianBlur stdDeviation="1" result="effect1_foregroundBlur_18590_3314"/>
</filter>
<filter id="filter3_f_18590_3314" x="9.83289" y="7.18506" width="12.788" height="18.3799" filterUnits="userSpaceOnUse" color-interpolation-filters="sRGB">
<feFlood flood-opacity="0" result="BackgroundImageFix"/>
<feBlend mode="normal" in="SourceGraphic" in2="BackgroundImageFix" result="shape"/>
<feGaussianBlur stdDeviation="0.5" result="effect1_foregroundBlur_18590_3314"/>
</filter>
<filter id="filter4_ii_18590_3314" x="9.83289" y="7.78506" width="12.188" height="17.7799" filterUnits="userSpaceOnUse" color-interpolation-filters="sRGB">
<feFlood flood-opacity="0" result="BackgroundImageFix"/>
<feBlend mode="normal" in="SourceGraphic" in2="BackgroundImageFix" result="shape"/>
<feColorMatrix in="SourceAlpha" type="matrix" values="0 0 0 0 0 0 0 0 0 0 0 0 0 0 0 0 0 0 127 0" result="hardAlpha"/>
<feOffset dx="-1" dy="1"/>
<feGaussianBlur stdDeviation="1"/>
<feComposite in2="hardAlpha" operator="arithmetic" k2="-1" k3="1"/>
<feColorMatrix type="matrix" values="0 0 0 0 0.866667 0 0 0 0 0.819608 0 0 0 0 0.941176 0 0 0 1 0"/>
<feBlend mode="normal" in2="shape" result="effect1_innerShadow_18590_3314"/>
<feColorMatrix in="SourceAlpha" type="matrix" values="0 0 0 0 0 0 0 0 0 0 0 0 0 0 0 0 0 0 127 0" result="hardAlpha"/>
<feOffset dx="0.4" dy="-0.4"/>
<feGaussianBlur stdDeviation="0.5"/>
<feComposite in2="hardAlpha" operator="arithmetic" k2="-1" k3="1"/>
<feColorMatrix type="matrix" values="0 0 0 0 1 0 0 0 0 0.988235 0 0 0 0 1 0 0 0 1 0"/>
<feBlend mode="normal" in2="effect1_innerShadow_18590_3314" result="effect2_innerShadow_18590_3314"/>
</filter>
<linearGradient id="paint0_linear_18590_3314" x1="16.2268" y1="6.01201" x2="16.2268" y2="39.2647" gradientUnits="userSpaceOnUse">
<stop stop-color="#5CB7FF"/>
<stop offset="1" stop-color="#4878DD"/>
</linearGradient>
<radialGradient id="paint1_radial_18590_3314" cx="0" cy="0" r="1" gradientUnits="userSpaceOnUse" gradientTransform="translate(27.9456 4.53125) rotate(136.771) scale(2.14444 2.50466)">
<stop stop-color="#7BD7FF"/>
<stop offset="1" stop-color="#7BD7FF" stop-opacity="0"/>
</radialGradient>
<linearGradient id="paint2_linear_18590_3314" x1="28.9768" y1="4.9375" x2="28.9768" y2="27.8125" gradientUnits="userSpaceOnUse">
<stop stop-color="#7FD9FF"/>
<stop offset="1" stop-color="#639DF4"/>
</linearGradient>
<linearGradient id="paint3_linear_18590_3314" x1="28.6907" y1="4.50002" x2="3.15942" y2="4.50002" gradientUnits="userSpaceOnUse">
<stop stop-color="#7DD8FF"/>
<stop offset="1" stop-color="#5DB6FF"/>
</linearGradient>
</defs>
</svg>

<svg width="32" height="32" fill="none" xmlns="http://www.w3.org/2000/svg"><g filter="url(#a)"><rect x="2.289" y="2.438" width="27.875" height="27.875" rx="3.6" fill="url(#b)"/><rect x="2.289" y="2.438" width="27.875" height="27.875" rx="3.6" fill="url(#c)"/></g><g filter="url(#d)"><path d="M28.477 4.938v22.875" stroke="url(#e)" stroke-width="1.5" stroke-linecap="round"/></g><g filter="url(#f)"><path d="M5.753 4.25h21.781" stroke="url(#g)" stroke-width="1.5" stroke-linecap="round"/></g><g filter="url(#h)"><path d="M14.84 8.237a1.75 1.75 0 0 1 1.275 2.122l-1.261 5.057a.1.1 0 0 0 .097.124h1.671a.1.1 0 0 0 .1-.1v-1.005a1.75 1.75 0 1 1 3.5 0v1.06c0 .047.034.087.08.099a1.75 1.75 0 0 1 0 3.393.104.104 0 0 0-.08.1v3.728a1.75 1.75 0 1 1-3.5 0V19.14a.1.1 0 0 0-.1-.1h-4.04a1.75 1.75 0 0 1-1.697-2.173l1.834-7.355a1.75 1.75 0 0 1 2.121-1.275Z" fill="#579FFF"/></g><g filter="url(#i)"><path d="M14.84 8.237a1.75 1.75 0 0 1 1.275 2.122l-1.261 5.057a.1.1 0 0 0 .097.124h1.671a.1.1 0 0 0 .1-.1v-1.005a1.75 1.75 0 1 1 3.5 0v1.06c0 .047.034.087.08.099a1.75 1.75 0 0 1 0 3.393.104.104 0 0 0-.08.1v3.728a1.75 1.75 0 1 1-3.5 0V19.14a.1.1 0 0 0-.1-.1h-4.04a1.75 1.75 0 0 1-1.697-2.173l1.834-7.355a1.75 1.75 0 0 1 2.121-1.275Z" fill="#FCF2FF"/></g><defs><filter id="a" x="2.289" y="1.438" width="28.875" height="28.875" filterUnits="userSpaceOnUse" color-interpolation-filters="sRGB"><feFlood flood-opacity="0" result="BackgroundImageFix"/><feBlend in="SourceGraphic" in2="BackgroundImageFix" result="shape"/><feColorMatrix in="SourceAlpha" values="0 0 0 0 0 0 0 0 0 0 0 0 0 0 0 0 0 0 127 0" result="hardAlpha"/><feOffset dx="1" dy="-1"/><feGaussianBlur stdDeviation="1.5"/><feComposite in2="hardAlpha" operator="arithmetic" k2="-1" k3="1"/><feColorMatrix values="0 0 0 0 0.188235 0 0 0 0 0.470588 0 0 0 0 0.843137 0 0 0 1 0"/><feBlend in2="shape" result="effect1_innerShadow_18590_3314"/><feColorMatrix in="SourceAlpha" values="0 0 0 0 0 0 0 0 0 0 0 0 0 0 0 0 0 0 127 0" result="hardAlpha"/><feOffset dy="-1"/><feGaussianBlur stdDeviation="1.5"/><feComposite in2="hardAlpha" operator="arithmetic" k2="-1" k3="1"/><feColorMatrix values="0 0 0 0 0.27451 0 0 0 0 0.34902 0 0 0 0 0.8 0 0 0 1 0"/><feBlend in2="effect1_innerShadow_18590_3314" result="effect2_innerShadow_18590_3314"/></filter><filter id="d" x="25.727" y="2.188" width="5.5" height="28.375" filterUnits="userSpaceOnUse" color-interpolation-filters="sRGB"><feFlood flood-opacity="0" result="BackgroundImageFix"/><feBlend in="SourceGraphic" in2="BackgroundImageFix" result="shape"/><feGaussianBlur stdDeviation="1" result="effect1_foregroundBlur_18590_3314"/></filter><filter id="f" x="3.003" y="1.5" width="27.281" height="5.5" filterUnits="userSpaceOnUse" color-interpolation-filters="sRGB"><feFlood flood-opacity="0" result="BackgroundImageFix"/><feBlend in="SourceGraphic" in2="BackgroundImageFix" result="shape"/><feGaussianBlur stdDeviation="1" result="effect1_foregroundBlur_18590_3314"/></filter><filter id="h" x="9.833" y="7.185" width="12.788" height="18.38" filterUnits="userSpaceOnUse" color-interpolation-filters="sRGB"><feFlood flood-opacity="0" result="BackgroundImageFix"/><feBlend in="SourceGraphic" in2="BackgroundImageFix" result="shape"/><feGaussianBlur stdDeviation=".5" result="effect1_foregroundBlur_18590_3314"/></filter><filter id="i" x="9.833" y="7.785" width="12.188" height="17.78" filterUnits="userSpaceOnUse" color-interpolation-filters="sRGB"><feFlood flood-opacity="0" result="BackgroundImageFix"/><feBlend in="SourceGraphic" in2="BackgroundImageFix" result="shape"/><feColorMatrix in="SourceAlpha" values="0 0 0 0 0 0 0 0 0 0 0 0 0 0 0 0 0 0 127 0" result="hardAlpha"/><feOffset dx="-1" dy="1"/><feGaussianBlur stdDeviation="1"/><feComposite in2="hardAlpha" operator="arithmetic" k2="-1" k3="1"/><feColorMatrix values="0 0 0 0 0.866667 0 0 0 0 0.819608 0 0 0 0 0.941176 0 0 0 1 0"/><feBlend in2="shape" result="effect1_innerShadow_18590_3314"/><feColorMatrix in="SourceAlpha" values="0 0 0 0 0 0 0 0 0 0 0 0 0 0 0 0 0 0 127 0" result="hardAlpha"/><feOffset dx=".4" dy="-.4"/><feGaussianBlur stdDeviation=".5"/><feComposite in2="hardAlpha" operator="arithmetic" k2="-1" k3="1"/><feColorMatrix values="0 0 0 0 1 0 0 0 0 0.988235 0 0 0 0 1 0 0 0 1 0"/><feBlend in2="effect1_innerShadow_18590_3314" result="effect2_innerShadow_18590_3314"/></filter><linearGradient id="b" x1="16.227" y1="6.012" x2="16.227" y2="39.265" gradientUnits="userSpaceOnUse"><stop stop-color="#5CB7FF"/><stop offset="1" stop-color="#4878DD"/></linearGradient><linearGradient id="e" x1="28.977" y1="4.938" x2="28.977" y2="27.813" gradientUnits="userSpaceOnUse"><stop stop-color="#7FD9FF"/><stop offset="1" stop-color="#639DF4"/></linearGradient><linearGradient id="g" x1="28.691" y1="4.5" x2="3.159" y2="4.5" gradientUnits="userSpaceOnUse"><stop stop-color="#7DD8FF"/><stop offset="1" stop-color="#5DB6FF"/></linearGradient><radialGradient id="c" cx="0" cy="0" r="1" gradientUnits="userSpaceOnUse" gradientTransform="matrix(-1.56249 1.46876 -1.71548 -1.82495 27.946 4.531)"><stop stop-color="#7BD7FF"/><stop offset="1" stop-color="#7BD7FF" stop-opacity="0"/></radialGradient></defs></svg>
